wp-content/uploads/stamp09.svg

<?xml version="1.0" encoding="UTF-8"?> <svg xmlns="http://www.w3.org/2000/svg" width="158" height="23" viewBox="0 0 158 23" fill="none"><rect width="158" height="23" rx="5" fill="#032538"></rect><path d="M11.552 14.92V13.576L17.76 11.496V11.304L11.552 9.224V7.88L18.24 10.184V12.616L11.552 14.92ZM31.9938 5.8V13.224C31.9938 14.1307 32.2018 14.8187 32.6178 15.288C33.0444 15.7467 33.6684 15.976 34.4898 15.976C35.3111 15.976 35.9298 15.7467 36.3458 15.288C36.7724 14.8187 36.9858 14.1307 36.9858 13.224V5.8H38.3298V13.224C38.3298 14.5253 37.9884 15.5173 37.3058 16.2C36.6231 16.8827 35.6844 17.224 34.4898 17.224C33.2951 17.224 32.3564 16.8827 31.6738 16.2C30.9911 15.5173 30.6497 14.5253 30.6497 13.224V5.8H31.9938ZM46.9266 9.032C46.9266 8.66933 46.852 8.34933 46.7026 8.072C46.564 7.79467 46.372 7.56533 46.1266 7.384C45.8813 7.20267 45.5986 7.064 45.2786 6.968C44.9586 6.872 44.6226 6.824 44.2706 6.824C43.9613 6.824 43.668 6.86667 43.3906 6.952C43.1133 7.02667 42.8626 7.13867 42.6386 7.288C42.4253 7.43733 42.2546 7.624 42.1266 7.848C41.9986 8.06133 41.9346 8.312 41.9346 8.6V8.696C41.9346 9.00533 41.9986 9.272 42.1266 9.496C42.2546 9.70933 42.4413 9.896 42.6866 10.056C42.9426 10.2053 43.2573 10.3333 43.6306 10.44C44.004 10.536 44.4413 10.6213 44.9426 10.696C46.116 10.8773 46.98 11.224 47.5346 11.736C48.0893 12.2373 48.3666 12.9147 48.3666 13.768V13.96C48.3666 14.44 48.2813 14.8827 48.1106 15.288C47.9506 15.6827 47.7053 16.024 47.3746 16.312C47.0546 16.6 46.6546 16.824 46.1746 16.984C45.6946 17.144 45.14 17.224 44.5106 17.224C43.796 17.224 43.1613 17.1227 42.6066 16.92C42.0626 16.7067 41.604 16.4187 41.2306 16.056C40.868 15.6827 40.5906 15.2507 40.3986 14.76C40.2066 14.2587 40.1106 13.7147 40.1106 13.128V12.648H41.4546V13.032C41.4546 14.0133 41.7213 14.7493 42.2546 15.24C42.7986 15.7307 43.5506 15.976 44.5106 15.976C45.3426 15.976 45.9666 15.7947 46.3826 15.432C46.8093 15.0587 47.0226 14.568 47.0226 13.96V13.864C47.0226 13.2773 46.804 12.8293 46.3666 12.52C45.94 12.2107 45.2413 11.9867 44.2706 11.848C43.7053 11.7733 43.1933 11.6613 42.7346 11.512C42.2866 11.352 41.9026 11.1493 41.5826 10.904C41.2626 10.648 41.0173 10.344 40.8466 9.992C40.676 9.64 40.5906 9.224 40.5906 8.744V8.552C40.5906 8.11467 40.6813 7.71467 40.8626 7.352C41.044 6.98933 41.2946 6.67467 41.6146 6.408C41.9453 6.14133 42.3346 5.93867 42.7826 5.8C43.2413 5.65067 43.7426 5.576 44.2866 5.576C44.916 5.576 45.476 5.66667 45.9666 5.848C46.468 6.02933 46.8893 6.27467 47.2306 6.584C47.572 6.88267 47.828 7.24 47.9986 7.656C48.18 8.06133 48.2706 8.488 48.2706 8.936V9.608H46.9266V9.032ZM50.6915 5.8H57.4755V7.048H52.0355V10.76H57.3795V12.008H52.0355V15.752H57.5715V17H50.6915V5.8ZM67.3844 17H66.0404V13.256C66.0404 12.9787 65.9764 12.7653 65.8484 12.616C65.7204 12.4667 65.4964 12.392 65.1764 12.392H61.6884V17H60.3444V5.8H64.3444C64.9204 5.8 65.4217 5.88533 65.8484 6.056C66.275 6.216 66.627 6.43467 66.9044 6.712C67.1924 6.98933 67.4057 7.31467 67.5444 7.688C67.6937 8.05067 67.7684 8.43467 67.7684 8.84V9.32C67.7684 9.736 67.651 10.152 67.4164 10.568C67.1924 10.984 66.8404 11.304 66.3604 11.528V11.72C66.6804 11.7733 66.931 11.9013 67.1124 12.104C67.2937 12.3067 67.3844 12.5947 67.3844 12.968V17ZM61.6884 11.144H64.1844C64.9417 11.144 65.5017 10.984 65.8644 10.664C66.2377 10.3333 66.4244 9.85333 66.4244 9.224V8.936C66.4244 8.37067 66.2377 7.91733 65.8644 7.576C65.5017 7.224 64.9417 7.048 64.1844 7.048H61.6884V11.144ZM71.2773 12.264H76.0773V13.416H71.2773V12.264ZM83.5381 15.976C83.9968 15.976 84.3861 15.9013 84.7061 15.752C85.0368 15.592 85.3035 15.384 85.5061 15.128C85.7195 14.8613 85.8741 14.5627 85.9701 14.232C86.0768 13.8907 86.1301 13.5333 86.1301 13.16V12.968H87.4741V13.16C87.4741 13.7253 87.3888 14.2587 87.2181 14.76C87.0475 15.2507 86.7968 15.6827 86.4661 16.056C86.1355 16.4187 85.7248 16.7067 85.2341 16.92C84.7435 17.1227 84.1781 17.224 83.5381 17.224C82.3008 17.224 81.3355 16.8347 80.6421 16.056C79.9488 15.2773 79.6021 14.1413 79.6021 12.648V10.152C79.6021 8.70133 79.9488 7.576 80.6421 6.776C81.3355 5.976 82.3008 5.576 83.5381 5.576C84.1781 5.576 84.7435 5.68267 85.2341 5.896C85.7248 6.09867 86.1355 6.38667 86.4661 6.76C86.7968 7.12267 87.0475 7.55467 87.2181 8.056C87.3888 8.54667 87.4741 9.07467 87.4741 9.64V9.832H86.1301V9.64C86.1195 9.27733 86.0608 8.92533 85.9541 8.584C85.8581 8.24267 85.7035 7.944 85.4901 7.688C85.2875 7.42133 85.0261 7.21333 84.7061 7.064C84.3861 6.904 83.9968 6.824 83.5381 6.824C82.6741 6.824 82.0235 7.13867 81.5861 7.768C81.1595 8.39733 80.9461 9.224 80.9461 10.248V12.552C80.9461 13.6507 81.1595 14.4987 81.5861 15.096C82.0235 15.6827 82.6741 15.976 83.5381 15.976ZM89.879 5.8H96.663V7.048H91.223V10.76H96.567V12.008H91.223V15.752H96.759V17H89.879V5.8ZM105.26 16.424H105.452V5.8H106.796V17H104.108L100.876 6.376H100.684V17H99.3399V5.8H102.028L105.26 16.424ZM108.929 5.8H116.801V7.048H113.537V17H112.193V7.048H108.929V5.8ZM126.166 17H124.822V13.256C124.822 12.9787 124.758 12.7653 124.63 12.616C124.502 12.4667 124.278 12.392 123.958 12.392H120.47V17H119.126V5.8H123.126C123.702 5.8 124.203 5.88533 124.63 6.056C125.056 6.216 125.408 6.43467 125.686 6.712C125.974 6.98933 126.187 7.31467 126.326 7.688C126.475 8.05067 126.55 8.43467 126.55 8.84V9.32C126.55 9.736 126.432 10.152 126.198 10.568C125.974 10.984 125.622 11.304 125.142 11.528V11.72C125.462 11.7733 125.712 11.9013 125.894 12.104C126.075 12.3067 126.166 12.5947 126.166 12.968V17ZM120.47 11.144H122.966C123.723 11.144 124.283 10.984 124.646 10.664C125.019 10.3333 125.206 9.85333 125.206 9.224V8.936C125.206 8.37067 125.019 7.91733 124.646 7.576C124.283 7.224 123.723 7.048 122.966 7.048H120.47V11.144ZM128.907 5.8H136.01V7.048H133.131V15.752H136.01V17H128.907V15.752H131.786V7.048H128.907V5.8ZM142.319 15.976C142.778 15.976 143.167 15.9013 143.487 15.752C143.818 15.592 144.085 15.384 144.287 15.128C144.501 14.8613 144.655 14.5627 144.751 14.232C144.858 13.8907 144.911 13.5333 144.911 13.16V12.968H146.255V13.16C146.255 13.7253 146.17 14.2587 145.999 14.76C145.829 15.2507 145.578 15.6827 145.247 16.056C144.917 16.4187 144.506 16.7067 144.015 16.92C143.525 17.1227 142.959 17.224 142.319 17.224C141.082 17.224 140.117 16.8347 139.423 16.056C138.73 15.2773 138.383 14.1413 138.383 12.648V10.152C138.383 8.70133 138.73 7.576 139.423 6.776C140.117 5.976 141.082 5.576 142.319 5.576C142.959 5.576 143.525 5.68267 144.015 5.896C144.506 6.09867 144.917 6.38667 145.247 6.76C145.578 7.12267 145.829 7.55467 145.999 8.056C146.17 8.54667 146.255 9.07467 146.255 9.64V9.832H144.911V9.64C144.901 9.27733 144.842 8.92533 144.735 8.584C144.639 8.24267 144.485 7.944 144.271 7.688C144.069 7.42133 143.807 7.21333 143.487 7.064C143.167 6.904 142.778 6.824 142.319 6.824C141.455 6.824 140.805 7.13867 140.367 7.768C139.941 8.39733 139.727 9.224 139.727 10.248V12.552C139.727 13.6507 139.941 14.4987 140.367 15.096C140.805 15.6827 141.455 15.976 142.319 15.976Z" fill="#90EAE1"></path></svg>

<svg xmlns="http://www.w3.org/2000/svg" width="158" height="23" fill="none"><rect width="158" height="23" fill="#032538" rx="5"/><path fill="#90EAE1" d="M11.552 14.92v-1.344l6.208-2.08v-.192l-6.208-2.08V7.88l6.688 2.304v2.432l-6.688 2.304ZM31.994 5.8v7.424c0 .907.208 1.595.624 2.064.426.459 1.05.688 1.872.688.821 0 1.44-.23 1.856-.688.426-.47.64-1.157.64-2.064V5.8h1.344v7.424c0 1.301-.342 2.293-1.024 2.976-.683.683-1.622 1.024-2.816 1.024-1.195 0-2.134-.341-2.816-1.024-.683-.683-1.024-1.675-1.024-2.976V5.8h1.344Zm14.933 3.232c0-.363-.075-.683-.224-.96a1.897 1.897 0 0 0-.576-.688 2.735 2.735 0 0 0-.848-.416 3.49 3.49 0 0 0-1.008-.144c-.31 0-.603.043-.88.128a2.531 2.531 0 0 0-.752.336c-.214.15-.384.336-.512.56a1.434 1.434 0 0 0-.192.752v.096c0 .31.064.576.192.8.128.213.314.4.56.56.256.15.57.277.944.384.373.096.81.181 1.312.256 1.173.181 2.037.528 2.592 1.04.554.501.832 1.179.832 2.032v.192c0 .48-.086.923-.256 1.328-.16.395-.406.736-.736 1.024a3.35 3.35 0 0 1-1.2.672c-.48.16-1.035.24-1.664.24-.715 0-1.35-.101-1.904-.304a4.088 4.088 0 0 1-1.376-.864 3.858 3.858 0 0 1-.832-1.296 4.525 4.525 0 0 1-.288-1.632v-.48h1.344v.384c0 .981.266 1.717.8 2.208.544.49 1.296.736 2.256.736.832 0 1.456-.181 1.872-.544.426-.373.64-.864.64-1.472v-.096c0-.587-.219-1.035-.656-1.344-.427-.31-1.126-.533-2.096-.672a8.618 8.618 0 0 1-1.536-.336 4.202 4.202 0 0 1-1.152-.608 2.627 2.627 0 0 1-.736-.912c-.171-.352-.256-.768-.256-1.248v-.192c0-.437.09-.837.272-1.2.181-.363.432-.677.752-.944.33-.267.72-.47 1.168-.608.458-.15.96-.224 1.504-.224.629 0 1.189.09 1.68.272a3.76 3.76 0 0 1 1.264.736c.341.299.597.656.768 1.072.181.405.272.832.272 1.28v.672h-1.344v-.576ZM50.69 5.8h6.784v1.248h-5.44v3.712h5.345v1.248h-5.345v3.744h5.537V17h-6.88V5.8ZM67.385 17H66.04v-3.744c0-.277-.064-.49-.192-.64-.128-.15-.352-.224-.672-.224h-3.488V17h-1.344V5.8h4c.576 0 1.078.085 1.504.256.427.16.779.379 1.056.656.288.277.502.603.64.976.15.363.224.747.224 1.152v.48c0 .416-.117.832-.352 1.248-.224.416-.576.736-1.056.96v.192c.32.053.571.181.752.384.182.203.272.49.272.864V17Zm-5.696-5.856h2.496c.758 0 1.318-.16 1.68-.48.374-.33.56-.81.56-1.44v-.288c0-.565-.186-1.019-.56-1.36-.362-.352-.922-.528-1.68-.528h-2.496v4.096Zm9.59 1.12h4.8v1.152h-4.8v-1.152Zm12.26 3.712c.459 0 .848-.075 1.168-.224.33-.16.597-.368.8-.624.213-.267.368-.565.464-.896.107-.341.16-.699.16-1.072v-.192h1.344v.192a4.93 4.93 0 0 1-.256 1.6c-.17.49-.421.923-.752 1.296-.33.363-.741.65-1.232.864-.49.203-1.056.304-1.696.304-1.237 0-2.203-.39-2.896-1.168-.693-.779-1.04-1.915-1.04-3.408v-2.496c0-1.45.347-2.576 1.04-3.376.694-.8 1.659-1.2 2.896-1.2.64 0 1.206.107 1.696.32a3.3 3.3 0 0 1 1.232.864c.33.363.582.795.752 1.296.17.49.256 1.019.256 1.584v.192H86.13V9.64a3.905 3.905 0 0 0-.176-1.056 2.391 2.391 0 0 0-.464-.896 2.06 2.06 0 0 0-.784-.624c-.32-.16-.71-.24-1.168-.24-.864 0-1.514.315-1.952.944-.427.63-.64 1.456-.64 2.48v2.304c0 1.099.213 1.947.64 2.544.438.587 1.088.88 1.952.88ZM89.88 5.8h6.784v1.248h-5.44v3.712h5.344v1.248h-5.344v3.744h5.536V17h-6.88V5.8Zm15.381 10.624h.192V5.8h1.344V17h-2.688l-3.232-10.624h-.192V17H99.34V5.8h2.688l3.232 10.624ZM108.929 5.8h7.872v1.248h-3.264V17h-1.344V7.048h-3.264V5.8ZM126.166 17h-1.344v-3.744c0-.277-.064-.49-.192-.64-.128-.15-.352-.224-.672-.224h-3.488V17h-1.344V5.8h4c.576 0 1.077.085 1.504.256.426.16.778.379 1.056.656.288.277.501.603.64.976.149.363.224.747.224 1.152v.48c0 .416-.118.832-.352 1.248-.224.416-.576.736-1.056.96v.192c.32.053.57.181.752.384.181.203.272.49.272.864V17Zm-5.696-5.856h2.496c.757 0 1.317-.16 1.68-.48.373-.33.56-.81.56-1.44v-.288c0-.565-.187-1.019-.56-1.36-.363-.352-.923-.528-1.68-.528h-2.496v4.096Zm8.437-5.344h7.103v1.248h-2.879v8.704h2.879V17h-7.103v-1.248h2.879V7.048h-2.879V5.8Zm13.412 10.176c.459 0 .848-.075 1.168-.224a2.24 2.24 0 0 0 .8-.624c.214-.267.368-.565.464-.896.107-.341.16-.699.16-1.072v-.192h1.344v.192c0 .565-.085 1.099-.256 1.6-.17.49-.421.923-.752 1.296-.33.363-.741.65-1.232.864-.49.203-1.056.304-1.696.304-1.237 0-2.202-.39-2.896-1.168-.693-.779-1.04-1.915-1.04-3.408v-2.496c0-1.45.347-2.576 1.04-3.376.694-.8 1.659-1.2 2.896-1.2.64 0 1.206.107 1.696.32.491.203.902.49 1.232.864.331.363.582.795.752 1.296a4.78 4.78 0 0 1 .256 1.584v.192h-1.344V9.64a3.87 3.87 0 0 0-.176-1.056 2.383 2.383 0 0 0-.464-.896 2.055 2.055 0 0 0-.784-.624c-.32-.16-.709-.24-1.168-.24-.864 0-1.514.315-1.952.944-.426.63-.64 1.456-.64 2.48v2.304c0 1.099.214 1.947.64 2.544.438.587 1.088.88 1.952.88Z"/></svg>
